X: 19559
T: James Gannon's
R: barndance
M: 4/4
K: Gmajor
dd|B2(3BAG A2(3AGF|G2 D2 DGBd|e2 F2 FAdf|gd dedc|
B2(3BAG A2(3AGF|G2 D2 DGBd|e2 F2 FEFG|A4 G2||
d2|edef gfga|b2 d2 d2ed|cBAG cdef|g2 d2 d2gf|
edef gfga|b2 d2 d2ed|cBAG FAdF|A4 G4||

